src/components/Icon/utils/svgsOptimized/highlight.svg

<svg width="24" height="24" viewBox="0 0 24 24"  xmlns="http://www.w3.org/2000/svg">
<path d="M14.957 5.12814L19.157 12.2281L19.117 12.1981C19.237 12.4281 19.187 12.7081 19.007 12.8881L15.117 16.7781C14.737 17.1581 14.117 17.1581 13.727 16.7781L13.557 16.6081L12.317 17.8381C11.937 18.2181 11.317 18.2181 10.927 17.8381L10.772 17.6831L9.39698 19.0581C9.30698 19.1481 9.18698 19.1981 9.05698 19.1981C9.00698 19.1981 8.90698 19.1781 8.90698 19.1781L5.14698 18.3181C4.80698 18.2081 4.70698 17.7681 4.95698 17.5181L7.78698 14.6981V14.6881L10.762 17.6631L12.687 15.7381L9.69697 12.7481L7.76697 14.6781L7.59697 14.5081C7.20697 14.1281 7.20697 13.4981 7.59697 13.1181L8.83697 11.8881L8.66697 11.7181C8.28697 11.3381 8.28697 10.7081 8.66697 10.3281L14.007 4.97814C14.297 4.68814 14.777 4.76814 14.957 5.12814Z" />
</svg>

<?xml version="1.0" encoding="utf-8"?><svg width="24" height="24" xmlns="http://www.w3.org/2000/svg" viewBox="0 0 24 24"><path d="m14.957 5.128 4.2 7.1-.04-.03c.12.23.07.51-.11.69l-3.89 3.89a.99.99 0 0 1-1.39 0l-.17-.17-1.24 1.23a.99.99 0 0 1-1.39 0l-.155-.155-1.375 1.375c-.09.09-.21.14-.34.14-.05 0-.15-.02-.15-.02l-3.76-.86a.485.485 0 0 1-.19-.8l2.83-2.82v-.01l2.975 2.975 1.925-1.925-2.99-2.99-1.93 1.93-.17-.17a.972.972 0 0 1 0-1.39l1.24-1.23-.17-.17a.99.99 0 0 1 0-1.39l5.34-5.35c.29-.29.77-.21.95.15Z"/></svg>
